X: 44
T:Hay branle
M:C|
L:1/4
R:Branle
N:The second part repeated until the hay is completed
B:Thoinot Arbeau : Orchesographie, 1589
Z:Steve Mansfield March 2001
K:GDor
zG cc | cd GG | GA BB | GB A2 |
zA cc | cd GG | GB AG | AF G2 |
zG cB | cd e2 | ef e d/c/ | dd c2 |
zc ff | fe d2 | dd cc | BB A2 ||
Ad cB | cA G2 | Ad cB | cA G2 ||
<end>
<start>
